app/assets/icons/wallet.svg

<!-- Generated by IcoMoon.io -->
<svg version="1.1" xmlns="http://www.w3.org/2000/svg" width="32" height="32" viewBox="0 0 32 32">
<title>wallet</title>
<path d="M16 20c0-1.105 0.895-2 2-2s2 0.895 2 2c0 1.105-0.895 2-2 2s-2-0.895-2-2zM29.001 13c-0.001 0-0.001 0 0 0l-0.001-6v-3c0-1.657-1.344-3-3-3h-20.5c-3.033 0-5.5 2.468-5.5 5.5v20c0 3.032 2.467 5.5 5.5 5.5h18c3.032 0 5.5-2.468 5.5-5.5v-1.5c0 0 0 0 0.001 0 3.998-3.001 3.998-8.999 0-12zM5.5 3h20.5c0.551 0 1 0.448 1 1v6.184c-0.314-0.112-0.648-0.184-1-0.184h-0.001v-5c0-0.553-0.448-1-1-1h-21c-0.552 0-1 0.447-1 1v3.943c-0.617-0.631-0.999-1.491-0.999-2.443 0-1.933 1.566-3.5 3.5-3.5zM24.999 6h-21v-1h21v1zM24.999 7v1h-21v-1h21zM24.999 9v1h-19.499c-0.54 0-1.044-0.132-1.5-0.35v-0.65h20.999zM27 26.5c0 1.933-1.567 3.5-3.5 3.5h-18c-1.934 0-3.5-1.567-3.5-3.5v-15.761c0.951 0.787 2.171 1.261 3.5 1.261h20.5c0.551 0 1 0.448 1 1v2h-9c-2.762 0-5 2.238-5 5s2.239 5 5 5h9v1.5zM28.277 23h-10.277c-1.654 0-3-1.346-3-3s1.346-3 3-3h9c0.617-0.008 1.229-0.307 1.602-0.804 0.104-0.14 0.185-0.297 0.25-0.461 0.009-0.022 0.025-0.039 0.033-0.062 0.719 0.943 1.115 2.099 1.115 3.327 0 1.538-0.621 2.965-1.723 4z"></path>
</svg>

<svg xmlns="http://www.w3.org/2000/svg" viewBox="0 0 32 32"><path d="M16 20a2 2 0 1 1 3.999-.001A2 2 0 0 1 16 20zm13.001-7c-.001 0-.001 0 0 0L29 7V4a3 3 0 0 0-3-3H5.5A5.506 5.506 0 0 0 0 6.5v20C0 29.532 2.467 32 5.5 32h18c3.032 0 5.5-2.468 5.5-5.5V25h.001c3.998-3.001 3.998-8.999 0-12zM5.5 3H26c.551 0 1 .448 1 1v6.184A2.966 2.966 0 0 0 26 10h-.001V5a1 1 0 0 0-1-1h-21a1 1 0 0 0-1 1v3.943A3.482 3.482 0 0 1 2 6.5 3.5 3.5 0 0 1 5.5 3zm19.499 3h-21V5h21v1zm0 1v1h-21V7h21zm0 2v1H5.5A3.46 3.46 0 0 1 4 9.65V9h20.999zM27 26.5a3.5 3.5 0 0 1-3.5 3.5h-18A3.5 3.5 0 0 1 2 26.5V10.739A5.473 5.473 0 0 0 5.5 12H26c.551 0 1 .448 1 1v2h-9a5 5 0 1 0 0 10h9v1.5zm1.277-3.5H18c-1.654 0-3-1.346-3-3s1.346-3 3-3h9a2.062 2.062 0 0 0 1.602-.804c.104-.14.185-.297.25-.461.009-.022.025-.039.033-.062A5.458 5.458 0 0 1 30 19a5.448 5.448 0 0 1-1.723 4z"/></svg>
